build/img/category2__img_12.svg

<svg width="64" height="64" viewBox="0 0 64 64" fill="none" xmlns="http://www.w3.org/2000/svg">
<g opacity="0.4">
<path d="M7.22559 42.8388H8.25784V52.1291H13.3118L14.344 42.8388H15.4837V36.6453H7.22559V42.8388ZM11.462 50.0646H10.3224V42.8388H12.2661L11.462 50.0646ZM9.2901 38.7098H13.4191V40.7743H9.2901V38.7098Z" fill="#333333"/>
<path d="M56.7737 36.6453H48.5156V42.8388H49.6563L50.6885 52.1291H55.7414V42.8388H56.7737V36.6453ZM50.5801 38.7098H54.7092V40.7743H50.5801V38.7098ZM53.6769 50.0646H52.5373L51.7342 42.8388H53.6769V50.0646Z" fill="#333333"/>
<path d="M28.9033 42.8388H30.044L31.0762 52.1291H36.0218L37.054 42.8388H38.1936V36.6453H28.9033V42.8388ZM34.172 50.0646H32.924L32.1209 42.8388H34.9761L34.172 50.0646ZM30.9678 38.7098H36.1291V40.7743H30.9678V38.7098Z" fill="#333333"/>
<path d="M53.6774 37.7096H10.3226C5.18299 37.7096 1 33.5266 1 28.387V22.1934C1 17.0538 5.18299 12.8708 10.3226 12.8708H53.6774C58.817 12.8708 63 17.0538 63 22.1934V28.387C63 33.5266 58.817 37.7096 53.6774 37.7096Z" stroke="#333333" stroke-width="2"/>
<path d="M48.5159 17.0322H8.25781V19.0967H48.5159V17.0322Z" fill="#333333"/>
<path d="M55.7414 17.0322H50.5801V19.0967H55.7414V17.0322Z" fill="#333333"/>
</g>
</svg>

<svg width="64" height="64" fill="none" xmlns="http://www.w3.org/2000/svg"><g opacity=".4"><path d="M7.226 42.839h1.032v9.29h5.054l1.032-9.29h1.14v-6.194H7.226v6.194zm4.236 7.226h-1.14v-7.226h1.944l-.804 7.226zM9.29 38.71h4.13v2.064H9.29V38.71zm47.484-2.065h-8.258v6.194h1.14l1.032 9.29h5.053v-9.29h1.033v-6.194zM50.58 38.71h4.13v2.064h-4.13V38.71zm3.097 11.355h-1.14l-.803-7.226h1.943v7.226zm-24.774-7.226h1.141l1.032 9.29h4.946l1.032-9.29h1.14v-6.194h-9.29v6.194zm5.269 7.226h-1.248l-.803-7.226h2.855l-.804 7.226zM30.968 38.71h5.161v2.064h-5.161V38.71z" fill="#333"/><path d="M53.677 37.71H10.323C5.183 37.71 1 33.527 1 28.387v-6.194c0-5.14 4.183-9.322 9.323-9.322h43.354c5.14 0 9.323 4.183 9.323 9.322v6.194c0 5.14-4.183 9.323-9.323 9.323z" stroke="#333" stroke-width="2"/><path d="M48.516 17.032H8.258v2.065h40.258v-2.065zm7.225 0h-5.16v2.065h5.16v-2.065z" fill="#333"/></g></svg>
